X: 305665
M: 2/4
L: 1/16
K: F
(3cde |\
f3c {e}dcde | f3c {e}dcde | f2a2g2c'2 | a>bg>a fcde |\
f3c {e}dcde | f3c {e}dcde | face AcFA | GFGA F2 H|]
cB |\


